icons/new-file.svg

<svg xmlns="http://www.w3.org/2000/svg" viewBox="0 0 24 24"><path fill="#89ddff" d="M14 2H6c-1.11 0-2 .89-2 2v16c0 1.11.89 2 2 2h7.81c-.53-.91-.81-1.95-.81-3 0-.33.03-.67.08-1H6v-2h7.81c.46-.8 1.1-1.5 1.87-2H6v-2h12v1.08c.33-.05.67-.08 1-.08s.67.03 1 .08V8zm-1 7V3.5L18.5 9zm5 6v3h-3v2h3v3h2v-3h3v-2h-3v-3z"/></svg>

<!--
  - The MIT License (MIT)
  -
  - Copyright (c) 2015-2024 Elior "Mallowigi" Boukhobza
  -
  - Permission is hereby granted, free of charge, to any person obtaining a copy
  - of this software and associated documentation files (the "Software"), to deal
  - in the Software without restriction, including without limitation the rights
  - to use, copy, modify, merge, publish, distribute, sublicense, and/or sell
  - copies of the Software, and to permit persons to whom the Software is
  - furnished to do so, subject to the following conditions:
  -
  - The above copyright notice and this permission notice shall be included in all
  - copies or substantial portions of the Software.
  -
  - THE SOFTWARE IS PROVIDED "AS IS", WITHOUT WARRANTY OF ANY KIND, EXPRESS OR
  - IMPLIED, INCLUDING BUT NOT LIMITED TO THE WARRANTIES OF MERCHANTABILITY,
  - FITNESS FOR A PARTICULAR PURPOSE AND NONINFRINGEMENT. IN NO EVENT SHALL THE
  - AUTHORS OR COPYRIGHT HOLDERS BE LIABLE FOR ANY CLAIM, DAMAGES OR OTHER
  - LIABILITY, WHETHER IN AN ACTION OF CONTRACT, TORT OR OTHERWISE, ARISING FROM,
  - OUT OF OR IN CONNECTION WITH THE SOFTWARE OR THE USE OR OTHER DEALINGS IN THE
  - SOFTWARE.
  -
  -->

<svg xmlns="http://www.w3.org/2000/svg" viewBox="0 0 24 24" width="16px" height="16px">
  <path fill="#89DDFF"
        d="M14 2H6C4.89 2 4 2.89 4 4V20C4 21.11 4.89 22 6 22H13.81C13.28 21.09 13 20.05 13 19C13 18.67 13.03 18.33 13.08 18H6V16H13.81C14.27 15.2 14.91 14.5 15.68 14H6V12H18V13.08C18.33 13.03 18.67 13 19 13S19.67 13.03 20 13.08V8L14 2M13 9V3.5L18.5 9H13M18 15V18H15V20H18V23H20V20H23V18H20V15H18Z"/>
</svg>
